img/flag.svg

<svg height="150.237mm" viewBox="0 0 146.38901 150.237" width="146.38901mm" xmlns="http://www.w3.org/2000/svg"><path d="m4.41275 149.32354c.28529-.63229 6.64927-16.5721 14.1422-35.42179l13.6235-34.272175 3.01177-1.769888c5.43552-3.19423 11.83837-4.67399 16.49743-3.81271 7.01554 1.29689 12.994947 6.399778 23.465707 20.025871 7.647839 9.952502 11.817529 14.062842 16.724429 16.486402 3.74483 1.84959 3.86632 1.87347 9.446994 1.85664 6.23593-.01881 8.60935-.67341 13.67146-3.77064l2.61167-1.59794 14.38952-36.230583c7.91423-19.926821 14.39046-36.52702 14.39162-36.889324.00144-.451956-.80477-.206079-2.56831.783291-6.13663 3.442708-12.44971 4.932166-16.95645 4.000576-6.99579-1.446106-12.49662-6.105109-22.66027-19.192428-6.823225-8.785989-11.037514-13.361625-14.453704-15.69299-7.06819-4.82366099-15.671149-5.094684-24.252019-.764019-3.228087 1.629172-3.318777 1.648802-3.318777.718257 0-.577001-2.05109-1.433751-3.57334-1.492597-.34129-.013195-58.60618 145.804267-58.60618 146.671587 0 .18298.53033.4658 1.17852.62849.64819.16268 1.52435.42849 1.94703.59069.50629.19428.94549-.09735 1.2872-.85472zm90.097956-38.55254c-1.3426-.51015-3.8738-1.94991-5.6249-3.19946l-3.1838-2.27192.81955-2.06377c.45076-1.13507 1.72293-4.31768 2.82705-7.072482l2.0075-5.0087 2.915 2.19406c2.887829 2.17363 7.200904 4.151342 9.053394 4.151342.52846 0 .96084.25504.96084.56676s-1.1392 3.50638-2.53155 7.09924c-2.854665 7.36624-2.773335 7.3033-7.243084 5.60493zm10.264234-13.03074c0-.13717 1.21176-3.268912 2.69281-6.959422s2.69282-6.867453 2.69282-7.059893c0-.19243-1.26685-.71548-2.81522-1.16232-2.98159-.86047-5.11403-1.98725-8.026495-4.241188-.98124-.75937-1.89373-1.38068-2.02776-1.38068s-1.402309 2.919258-2.818399 6.487228c-1.41608 3.567983-2.78158 6.707563-3.03443 6.976843-.51766.5513-3.11515-2.17395-7.81639-8.200843-1.6279-2.08693-3.00649-3.794418-3.06354-3.794418s-1.27724 2.974328-2.71154 6.609631c-1.434299 3.6353-2.779299 6.60964-2.988899 6.60964s-1.4313-1.37701-2.71489-3.06002c-1.2836-1.68301-3.61908-4.410273-5.18996-6.060583l-2.85616-3.00057 2.39272-6.057078c1.316-3.33139 2.54476-6.48089 2.73058-6.99889.30288-.84425.56926-.71745 2.57159 1.22401 1.22854 1.1912 3.66259 3.98346 5.40901 6.20504 1.746419 2.22157 3.250309 4.03922 3.341989 4.03922.09167 0 1.42045-3.20625 2.95282-7.12499 1.53238-3.91874 2.84373-7.058318 2.91412-6.976834.07038.081479 1.88795 2.351364 4.03904 5.044174s4.563 5.5057 5.3598 6.25087l1.448729 1.35484 2.59286-6.74047c1.426075-3.70726 2.770945-6.933661 2.988615-7.169788.21851-.237035 1.35273.354846 2.53241 1.321501 2.37276 1.944297 6.63311 4.077647 9.07342 4.543477.87516.16706 1.59121.4523 1.59121.63387 0 .18158-1.21177 3.34964-2.69282 7.04015-1.48104 3.690498-2.69281 6.822238-2.69281 6.959418 0 .52491 4.81463.21702 7.4857-.47871 1.53747-.40046 4.33777-1.50483 6.22289-2.45417 1.88512-.94932 3.42749-1.657878 3.42749-1.574558 0 .08333-1.27024 3.335828-2.82277 7.227791l-2.82277 7.0763-3.66446 1.83099c-2.01545 1.00705-4.87623 2.14923-6.35727 2.538192-2.61924.68788-7.34404 1.02386-7.34404.52224zm-68.52133-26.985313c1.38215-3.46668 2.75476-6.595639 3.05024-6.95325.82426-.997558 4.63849-2.797246 8.36157-3.945271 3.79133-1.169077 8.89953-1.423323 8.49795-.422957-.13513.336603-1.40846 3.531259-2.82962 7.099238l-2.58395 6.48723h-3.04641c-3.28814 0-7.91626 1.27052-11.4728 3.14952-1.21177.6402-2.26774 1.10203-2.3466 1.02627-.07886-.07575.98746-2.97411 2.36962-6.44078zm80.49499-2.26597c-.12962-.33778.95778-3.587515 2.41645-7.221639 1.45867-3.634123 2.55007-6.772735 2.42535-6.974694-.12472-.201962-.53598-.367202-.91391-.367202-1.60727 0-6.30131-2.178913-9.04453-4.198356-2.92302-2.151808-2.96503-2.16509-3.38621-1.071052-1.80714 4.694084-5.13671 12.903891-5.31407 13.103048-.27884.31309-3.765205-3.581654-7.554674-8.439613-1.62534-2.083615-3.11447-3.689927-3.30919-3.569584-.19472.120346-1.51881 3.211288-2.94242 6.868766-1.42361 3.657484-2.74816 6.585723-2.94345 6.5072-.19529-.078518-2.12663-2.345976-4.29188-5.038789-2.16524-2.692812-4.504819-5.42382-5.199059-6.068901l-1.26226-1.172877-.45579 1.172877c-.25068.645081-1.47861 3.807791-2.72873 7.028243-1.25012 3.220453-2.35204 5.934453-2.4487 6.031123-.09666.09666-1.24393-.643777-2.54948-1.645421-2.50182-1.919457-6.962897-4.115882-8.385307-4.128534-2.35778-.020974-2.31302-.609299.60085-7.898662 1.54489-3.864698 2.85375-7.073686 2.90858-7.131085.05483-.057401 1.191047.184399 2.524927.537332 3.00404.79484 5.7617 2.189348 8.2454 4.169569 1.04683.834625 2.03827 1.515726 2.20321 1.513562.16493-.002164 1.49011-3.03158 2.944829-6.732035 1.45472-3.700454 2.72618-6.824514 2.82547-6.942362.32769-.388922 4.60514 4.065894 7.60995 7.925504 1.62473 2.08693 3.1109 3.794419 3.30258 3.794419.1917 0 1.52686-2.986527 2.96704-6.636729 1.440179-3.650197 2.749879-6.717922 2.910459-6.817162.16057-.09924 1.86788 1.840759 3.794035 4.311113 3.49556 4.483198 6.82511 8.040399 7.15153 7.640505.09487-.116237 1.34577-3.185671 2.77977-6.820969s2.66475-6.684579 2.73499-6.776177c.07024-.091599 1.30125.707334 2.73558 1.775407 3.36119 2.502905 4.46128 3.064867 7.82271 3.996052l2.76682.766466-2.64442 6.588689c-1.45443 3.623778-2.64442 6.897711-2.64442 7.275401 0 .55489.62109.620194 3.23558.340204 3.62258-.387945 7.04858-1.456058 10.85149-3.383137 1.40768-.713327 2.55941-1.109557 2.55941-.880518 0 1.391235-5.10772 13.228336-6.08383 14.09922-3.21599 2.869308-15.52669 6.263678-16.21468 4.470798zm-68.89993-26.85437 2.82519-7.048463 3.03414-1.604624c4.9992-2.643849 13.857147-4.501801 13.857147-2.90653 0 .346321-1.18988 3.596058-2.64418 7.221635l-2.644177 6.591964-3.20159.323893c-3.97786.402428-7.59606 1.482838-11.09416 3.312758-1.48104.774766-2.75238 1.352227-2.82518 1.283247-.0728-.068979 1.13896-3.297221 2.69281-7.17388zm27.109147-9.702708c-.96923-.486894-2.64353-1.152136-3.72065-1.478309-1.07713-.326178-2.21979-.674179-2.53925-.773337-.38519-.119558.32961-2.457135 2.12205-6.939645 1.48659-3.71765 2.8976-6.961619 3.13559-7.208819 1.00396-1.042848 7.052869 1.545822 11.627799 4.976193l1.46637 1.099513 2.68507-6.710775c1.47678-3.690922 2.91934-6.7888669 3.20568-6.8843099.48781-.162608 8.300904 8.8865939 9.846754 11.4046179.64983 1.058503.4988 1.671415-1.9266 7.818718-1.447445 3.668601-2.758485 6.748534-2.913435 6.844295-.15495.09576-1.923459-1.90137-3.930019-4.438076-3.69683-4.673529-6.71005-7.892587-7.02718-7.507222-.14385.174797-3.72077 9.045549-5.26939 13.068065-.4255 1.105233-.42804 1.104635-2.71323-.639686-1.25802-.960276-3.080329-2.144326-4.049559-2.631223zm-18.163927-12.515419c0-.130227 1.11197-3.049484 2.47105-6.487234 2.80118-7.085457 3.35002-7.716065 8.638027-9.924793 3.31825-1.385988 10.606019-2.92589999 11.171389-2.36052299.14249.142481-1.00399 3.48642599-2.547729 7.43098709l-2.80679 7.1719289-2.95494.006551c-3.08647.006839-9.780117 1.99771-12.041047 3.581328-1.15427.80848-1.92996 1.0423-1.92996.581755z" stroke-width=".264583"/></svg>

<?xml version="1.0" encoding="UTF-8" standalone="no"?>
<!-- Created with Inkscape (http://www.inkscape.org/) -->

<svg
   width="146.38901mm"
   height="150.237mm"
   viewBox="0 0 146.38901 150.237"
   version="1.1"
   id="svg1"
   xml:space="preserve"
   sodipodi:docname="flag.svg"
   inkscape:version="1.3 (0e150ed, 2023-07-21)"
   xmlns:inkscape="http://www.inkscape.org/namespaces/inkscape"
   xmlns:sodipodi="http://sodipodi.sourceforge.net/DTD/sodipodi-0.dtd"
   xmlns="http://www.w3.org/2000/svg"
   xmlns:svg="http://www.w3.org/2000/svg"><sodipodi:namedview
     id="namedview1"
     pagecolor="#ffffff"
     bordercolor="#666666"
     borderopacity="1.0"
     inkscape:showpageshadow="2"
     inkscape:pageopacity="0.0"
     inkscape:pagecheckerboard="0"
     inkscape:deskcolor="#d1d1d1"
     inkscape:document-units="mm"
     inkscape:zoom="0.68862935"
     inkscape:cx="336.17504"
     inkscape:cy="398.61792"
     inkscape:window-width="1392"
     inkscape:window-height="916"
     inkscape:window-x="0"
     inkscape:window-y="38"
     inkscape:window-maximized="0"
     inkscape:current-layer="layer1" /><defs
     id="defs1"><inkscape:perspective
       sodipodi:type="inkscape:persp3d"
       inkscape:vp_x="0 : 379.41807 : 1"
       inkscape:vp_y="0 : 999.99996 : 0"
       inkscape:vp_z="744.09456 : 379.41807 : 1"
       inkscape:persp3d-origin="372.04728 : 204.02438 : 1"
       id="perspective10" /><inkscape:perspective
       id="perspective2390"
       inkscape:persp3d-origin="372.04728 : 204.02438 : 1"
       inkscape:vp_z="744.09456 : 379.41807 : 1"
       inkscape:vp_y="0 : 999.99996 : 0"
       inkscape:vp_x="0 : 379.41807 : 1"
       sodipodi:type="inkscape:persp3d" /></defs><g
     inkscape:label="Layer 1"
     inkscape:groupmode="layer"
     id="layer1"><path
       style="fill:#000000;stroke-width:0.264583"
       d="M 4.41275,149.32354 C 4.69804,148.69125 11.06202,132.75144 18.55495,113.90175 L 32.17845,79.629575 L 35.19022,77.859687 C 40.62574,74.665457 47.02859,73.185697 51.68765,74.046977 C 58.70319,75.343867 64.682597,80.446755 75.153357,94.072848 C 82.801196,104.02535 86.970886,108.13569 91.877786,110.55925 C 95.622616,112.40884 95.744106,112.43272 101.32478,112.41589 C 107.56071,112.39708 109.93413,111.74248 114.99624,108.64525 L 117.60791,107.04731 L 131.99743,70.816727 C 139.91166,50.889906 146.38789,34.289707 146.38905,33.927403 C 146.39049,33.475447 145.58428,33.721324 143.82074,34.710694 C 137.68411,38.153402 131.37103,39.64286 126.86429,38.71127 C 119.8685,37.265164 114.36767,32.606161 104.20402,19.518842 C 97.380795,10.732853 93.166506,6.157217 89.750316,3.825852 C 82.682126,-0.99780899 74.079167,-1.268832 65.498297,3.061833 C 62.27021,4.691005 62.17952,4.710635 62.17952,3.78009 C 62.17952,3.203089 60.12843,2.346339 58.60618,2.287493 C 58.26489,2.274298 0,148.09176 0,148.95908 C 0,149.14206 0.53033,149.42488 1.17852,149.58757 C 1.82671,149.75025 2.70287,150.01606 3.12555,150.17826 C 3.63184,150.37254 4.07104,150.08091 4.41275,149.32354 Z M 94.510706,110.771 C 93.168106,110.26085 90.636906,108.82109 88.885806,107.57154 L 85.702006,105.29962 L 86.521556,103.23585 C 86.972316,102.10078 88.244486,98.91817 89.348606,96.163368 L 91.356106,91.154668 L 94.271106,93.348728 C 97.158935,95.522358 101.47201,97.50007 103.3245,97.50007 C 103.85296,97.50007 104.28534,97.75511 104.28534,98.06683 C 104.28534,98.37855 103.14614,101.57321 101.75379,105.16607 C 98.899125,112.53231 98.980455,112.46937 94.510706,110.771 Z M 104.77494,97.74026 C 104.77494,97.60309 105.9867,94.471348 107.46775,90.780838 C 108.9488,87.090328 110.16057,83.913385 110.16057,83.720945 C 110.16057,83.528515 108.89372,83.005465 107.34535,82.558625 C 104.36376,81.698155 102.23132,80.571375 99.318855,78.317437 C 98.337615,77.558067 97.425125,76.936757 97.291095,76.936757 C 97.157065,76.936757 95.888786,79.856015 94.472696,83.423985 C 93.056616,86.991968 91.691116,90.131548 91.438266,90.400828 C 90.920606,90.952128 88.323116,88.226878 83.621876,82.199985 C 81.993976,80.113055 80.615386,78.405567 80.558336,78.405567 C 80.501286,78.405567 79.281096,81.379895 77.846796,85.015198 C 76.412497,88.650498 75.067497,91.624838 74.857897,91.624838 C 74.648297,91.624838 73.426597,90.247828 72.143007,88.564818 C 70.859407,86.881808 68.523927,84.154545 66.953047,82.504235 L 64.096887,79.503665 L 66.489607,73.446587 C 67.805607,70.115197 69.034367,66.965697 69.220187,66.447697 C 69.523067,65.603447 69.789447,65.730247 71.791777,67.671707 C 73.020317,68.862907 75.454367,71.655167 77.200787,73.876747 C 78.947206,76.098317 80.451096,77.915967 80.542776,77.915967 C 80.634446,77.915967 81.963226,74.709717 83.495596,70.790977 C 85.027976,66.872237 86.339326,63.732659 86.409716,63.814143 C 86.480096,63.895622 88.297666,66.165507 90.448756,68.858317 C 92.599846,71.551127 95.011756,74.364017 95.808556,75.109187 L 97.257285,76.464027 L 99.850145,69.723557 C 101.27622,66.016297 102.62109,62.789896 102.83876,62.553769 C 103.05727,62.316734 104.19149,62.908615 105.37117,63.87527 C 107.74393,65.819567 112.00428,67.952917 114.44459,68.418747 C 115.31975,68.585807 116.0358,68.871047 116.0358,69.052617 C 116.0358,69.234197 114.82403,72.402257 113.34298,76.092767 C 111.86194,79.783265 110.65017,82.915005 110.65017,83.052185 C 110.65017,83.577095 115.4648,83.269205 118.13587,82.573475 C 119.67334,82.173015 122.47364,81.068645 124.35876,80.119305 C 126.24388,79.169985 127.78625,78.461427 127.78625,78.544747 C 127.78625,78.628077 126.51601,81.880575 124.96348,85.772538 L 122.14071,92.848838 L 118.47625,94.679828 C 116.4608,95.686878 113.60002,96.829058 112.11898,97.21802 C 109.49974,97.9059 104.77494,98.24188 104.77494,97.74026 Z M 36.25361,70.754947 C 37.63576,67.288267 39.00837,64.159308 39.30385,63.801697 C 40.12811,62.804139 43.94234,61.004451 47.66542,59.856426 C 51.45675,58.687349 56.56495,58.433103 56.16337,59.433469 C 56.02824,59.770072 54.75491,62.964728 53.33375,66.532707 L 50.7498,73.019937 H 47.70339 C 44.41525,73.019937 39.78713,74.290457 36.23059,76.169457 C 35.01882,76.809657 33.96285,77.271487 33.88399,77.195727 C 33.80513,77.119977 34.87145,74.221617 36.25361,70.754947 Z M 116.7486,68.488977 C 116.61898,68.151197 117.70638,64.901462 119.16505,61.267338 C 120.62372,57.633215 121.71512,54.494603 121.5904,54.292644 C 121.46568,54.090682 121.05442,53.925442 120.67649,53.925442 C 119.06922,53.925442 114.37518,51.746529 111.63196,49.727086 C 108.70894,47.575278 108.66693,47.561996 108.24575,48.656034 C 106.43861,53.350118 103.10904,61.559925 102.93168,61.759082 C 102.65284,62.072172 99.166475,58.177428 95.377006,53.319469 C 93.751666,51.235854 92.262536,49.629542 92.067816,49.749885 C 91.873096,49.870231 90.549006,52.961173 89.125396,56.618651 C 87.701786,60.276135 86.377236,63.204374 86.181946,63.125851 C 85.986656,63.047333 84.055316,60.779875 81.890066,58.087062 C 79.724826,55.39425 77.385247,52.663242 76.691007,52.018161 L 75.428747,50.845284 L 74.972957,52.018161 C 74.722277,52.663242 73.494347,55.825952 72.244227,59.046404 C 70.994107,62.266857 69.892187,64.980857 69.795527,65.077527 C 69.698867,65.174187 68.551597,64.43375 67.246047,63.432106 C 64.744227,61.512649 60.28315,59.316224 58.86074,59.303572 C 56.50296,59.282598 56.54772,58.694273 59.46159,51.40491 C 61.00648,47.540212 62.31534,44.331224 62.37017,44.273825 C 62.425,44.216424 63.561217,44.458224 64.895097,44.811157 C 67.899137,45.605997 70.656797,47.000505 73.140497,48.980726 C 74.187327,49.815351 75.178767,50.496452 75.343707,50.494288 C 75.508637,50.492124 76.833817,47.462708 78.288536,43.762253 C 79.743256,40.061799 81.014716,36.937739 81.114006,36.819891 C 81.441696,36.430969 85.719146,40.885785 88.723956,44.745395 C 90.348686,46.832325 91.834856,48.539814 92.026536,48.539814 C 92.218236,48.539814 93.553396,45.553287 94.993576,41.903085 C 96.433755,38.252888 97.743455,35.185163 97.904035,35.085923 C 98.064605,34.986683 99.771915,36.926682 101.69807,39.397036 C 105.19363,43.880234 108.52318,47.437435 108.8496,47.037541 C 108.94447,46.921304 110.19537,43.85187 111.62937,40.216572 C 113.06337,36.581274 114.29412,33.531993 114.36436,33.440395 C 114.4346,33.348796 115.66561,34.147729 117.09994,35.215802 C 120.46113,37.718707 121.56122,38.280669 124.92265,39.211854 L 127.68947,39.97832 L 125.04505,46.567009 C 123.59062,50.190787 122.40063,53.46472 122.40063,53.84241 C 122.40063,54.3973 123.02172,54.462604 125.63621,54.182614 C 129.25879,53.794669 132.68479,52.726556 136.4877,50.799477 C 137.89538,50.08615 139.04711,49.68992 139.04711,49.918959 C 139.04711,51.310194 133.93939,63.147295 132.96328,64.018179 C 129.74729,66.887487 117.43659,70.281857 116.7486,68.488977 Z M 47.84867,41.634607 L 50.67386,34.586144 L 53.708,32.98152 C 58.7072,30.337671 67.565147,28.479719 67.565147,30.07499 C 67.565147,30.421311 66.375267,33.671048 64.920967,37.296625 L 62.27679,43.888589 L 59.0752,44.212482 C 55.09734,44.61491 51.47914,45.69532 47.98104,47.52524 C 46.5,48.300006 45.22866,48.877467 45.15586,48.808487 C 45.08306,48.739508 46.29482,45.511266 47.84867,41.634607 Z M 74.957817,31.931899 C 73.988587,31.445005 72.314287,30.779763 71.237167,30.45359 C 70.160037,30.127412 69.017377,29.779411 68.697917,29.680253 C 68.312727,29.560695 69.027527,27.223118 70.819967,22.740608 C 72.306557,19.022958 73.717567,15.778989 73.955557,15.531789 C 74.959517,14.488941 81.008426,17.077611 85.583356,20.507982 L 87.049726,21.607495 L 89.734796,14.89672 C 91.211576,11.205798 92.654136,8.1078531 92.940476,8.0124101 C 93.428286,7.8498021 101.24138,16.899004 102.78723,19.417028 C 103.43706,20.475531 103.28603,21.088443 100.86063,27.235746 C 99.413185,30.904347 98.102145,33.98428 97.947195,34.080041 C 97.792245,34.175801 96.023736,32.178671 94.017176,29.641965 C 90.320346,24.968436 87.307126,21.749378 86.989996,22.134743 C 86.846146,22.30954 83.269226,31.180292 81.720606,35.202808 C 81.295106,36.308041 81.292566,36.307443 79.007376,34.563122 C 77.749356,33.602846 75.927047,32.418796 74.957817,31.931899 Z M 56.79389,19.41648 C 56.79389,19.286253 57.90586,16.366996 59.26494,12.929246 C 62.06612,5.843789 62.61496,5.213181 67.902967,3.004453 C 71.221217,1.618465 78.508986,0.07855301 79.074356,0.64393001 C 79.216846,0.78641101 78.070366,4.130356 76.526627,8.0749171 L 73.719837,15.246846 L 70.764897,15.253397 C 67.678427,15.260236 60.98478,17.251107 58.72385,18.834725 C 57.56958,19.643205 56.79389,19.877025 56.79389,19.41648 Z"
       id="path2396" /></g></svg>
